img/phone.svg

<svg width="24" height="24" viewBox="0 0 24 24" fill="none" xmlns="http://www.w3.org/2000/svg">
<path fill-rule="evenodd" clip-rule="evenodd" d="M15.2778 12.0278C14.4111 12.0278 13.5444 11.8833 12.6778 11.5944C12.4611 11.5222 12.1722 11.5944 11.9556 11.7389L10.3667 13.3278C8.34444 12.3167 6.68333 10.5833 5.6 8.56111L7.18889 6.97222C7.40556 6.75556 7.47778 6.46667 7.33333 6.25C7.11667 5.45556 6.97222 4.58889 6.97222 3.72222C6.97222 3.28889 6.68333 3 6.25 3H3.72222C3.28889 3 3 3.28889 3 3.72222C3 10.5111 8.48889 16 15.2778 16C15.7111 16 16 15.7111 16 15.2778V12.75C16 12.3167 15.7111 12.0278 15.2778 12.0278ZM14.5556 9.5H16C16 5.88889 13.1111 3 9.5 3V4.44444C12.3167 4.44444 14.5556 6.68333 14.5556 9.5ZM11.6667 9.5H13.1111C13.1111 7.47778 11.5222 5.88889 9.5 5.88889V7.33333C10.7278 7.33333 11.6667 8.27222 11.6667 9.5Z" fill="white"/>
</svg>

<svg width="24" height="24" fill="none" xmlns="http://www.w3.org/2000/svg"><path fill-rule="evenodd" clip-rule="evenodd" d="M15.278 12.028a8.179 8.179 0 01-2.6-.434c-.217-.072-.506 0-.722.145l-1.59 1.589C8.345 12.317 6.684 10.583 5.6 8.56l1.589-1.589c.217-.216.289-.505.144-.722a9.713 9.713 0 01-.36-2.528c0-.433-.29-.722-.723-.722H3.722C3.29 3 3 3.289 3 3.722A12.267 12.267 0 0015.278 16c.433 0 .722-.289.722-.722V12.75c0-.433-.289-.722-.722-.722zM14.556 9.5H16C16 5.889 13.111 3 9.5 3v1.444A5.024 5.024 0 0114.556 9.5zm-2.89 0h1.445A3.576 3.576 0 009.5 5.889v1.444c1.228 0 2.167.94 2.167 2.167z" fill="#fff"/></svg>
